synths/sDASH.svg

<svg width="42" height="42" viewBox="0 0 42 42" fill="none" xmlns="http://www.w3.org/2000/svg">
<g clip-path="url(#clip0_7277_57943)">
<mask id="mask0_7277_57943" style="mask-type:alpha" maskUnits="userSpaceOnUse" x="0" y="0" width="42" height="42">
<circle cx="21" cy="21" r="21" transform="matrix(-1 0 0 1 42 0)" fill="url(#paint0_linear_7277_57943)"/>
</mask>
<g mask="url(#mask0_7277_57943)">
<circle cx="21" cy="21" r="21" transform="matrix(-1 0 0 1 42 0)" fill="#34EDB3"/>
<circle cx="18.2" cy="18.2" r="18.2" transform="matrix(-1 0 0 1 39.2 2.80005)" fill="white"/>
</g>
<circle cx="16.1" cy="16.1" r="16.1" transform="matrix(-1 0 0 1 37.1 4.90002)" fill="#0B0B22"/>
<g clip-path="url(#clip1_7277_57943)">
<path d="M21 37.1C29.8918 37.1 37.1 29.8918 37.1 21C37.1 12.1082 29.8918 4.90002 21 4.90002C12.1082 4.90002 4.90002 12.1082 4.90002 21C4.90002 29.8918 12.1082 37.1 21 37.1Z" fill="#008CE7"/>
<path d="M24.1053 12.954H16.7839L16.1781 16.342L22.7811 16.3521C26.0323 16.3521 26.9973 17.5324 26.9661 19.4916C26.952 20.4958 26.5143 22.1944 26.3292 22.7418C25.8291 24.2109 24.7987 25.8833 20.9367 25.8783L14.5188 25.8742L13.913 29.2663H21.2154C23.7904 29.2663 24.8872 28.9654 26.0454 28.4311C28.6154 27.2458 30.1459 24.707 30.7607 21.3934C31.6723 16.4628 30.5353 12.954 24.1043 12.954H24.1053Z" fill="white"/>
<path d="M20.8057 20.7967C21.0442 19.8056 21.1197 19.4081 21.1197 19.4081H13.6271C11.7112 19.4081 11.4375 20.6558 11.2554 21.4105C11.0169 22.3977 10.9415 22.8002 10.9415 22.8002H18.435C20.3499 22.8002 20.6236 21.5524 20.8057 20.7967V20.7967Z" fill="white"/>
</g>
</g>
<defs>
<linearGradient id="paint0_linear_7277_57943" x1="21" y1="0" x2="21" y2="61.4091" gradientUnits="userSpaceOnUse">
<stop stop-color="#08021E"/>
<stop offset="1" stop-color="#1F0777"/>
</linearGradient>
<clipPath id="clip0_7277_57943">
<rect width="42" height="42" fill="white"/>
</clipPath>
<clipPath id="clip1_7277_57943">
<rect width="32.2" height="32.2" fill="white" transform="translate(4.90002 4.90002)"/>
</clipPath>
</defs>
</svg>

<svg xmlns="http://www.w3.org/2000/svg" width="42" height="42" fill="none"><g clip-path="url(#a)"><mask id="c" width="42" height="42" x="0" y="0" maskUnits="userSpaceOnUse" style="mask-type:alpha"><circle cx="21" cy="21" r="21" fill="url(#b)" transform="matrix(-1 0 0 1 42 0)"/></mask><g mask="url(#c)"><circle cx="21" cy="21" r="21" fill="#34EDB3" transform="matrix(-1 0 0 1 42 0)"/><circle cx="18.2" cy="18.2" r="18.2" fill="#fff" transform="matrix(-1 0 0 1 39.2 2.8)"/></g><circle cx="16.1" cy="16.1" r="16.1" fill="#0B0B22" transform="matrix(-1 0 0 1 37.1 4.9)"/><g clip-path="url(#d)"><path fill="#008CE7" d="M21 37.1c8.892 0 16.1-7.208 16.1-16.1 0-8.892-7.208-16.1-16.1-16.1-8.892 0-16.1 7.208-16.1 16.1 0 8.892 7.208 16.1 16.1 16.1Z"/><path fill="#fff" d="M24.105 12.954h-7.321l-.606 3.388 6.603.01c3.251 0 4.216 1.18 4.185 3.14-.014 1.004-.452 2.702-.637 3.25-.5 1.469-1.53 3.141-5.392 3.136l-6.418-.004-.606 3.392h7.302c2.575 0 3.672-.3 4.83-.835 2.57-1.185 4.1-3.724 4.716-7.038.911-4.93-.226-8.439-6.657-8.439h.001Z"/><path fill="#fff" d="M20.806 20.797c.238-.991.314-1.389.314-1.389h-7.493c-1.916 0-2.19 1.248-2.372 2.002-.238.988-.314 1.39-.314 1.39h7.494c1.915 0 2.189-1.248 2.37-2.003Z"/></g></g><defs><clipPath id="a"><path fill="#fff" d="M0 0h42v42H0z"/></clipPath><clipPath id="d"><path fill="#fff" d="M4.9 4.9h32.2v32.2H4.9z"/></clipPath><linearGradient id="b" x1="21" x2="21" y1="0" y2="61.409" gradientUnits="userSpaceOnUse"><stop stop-color="#08021E"/><stop offset="1" stop-color="#1F0777"/></linearGradient></defs></svg>
